X: 209
T: Halifax
B: canberra pickers and fiddlers
B: old time tunes update
B: tunes
M:C
L:1/8
Q: 1/4=100
K:A
V:1 
|:"A" !slide!aefa eA!slide!cB | "A" AcBA F2 EA- | "A" ABcA Bc3 |"E" e3 f e3 !slide!a-|
"A" aefa eA!slide!cB | "A" AcBA F2 EF | "A" ABcA "E" FEFE |1 "A" A3 B A3!slide!a-:|2 "A" A3 A A3 E- ||
|: "A" EEFG A2 AA |"A" AcBA (3FGF EG | "A" ABcA Bc3 |"E" [g3e3] [ge] [g3e3] E-|
"A" EEFG A2 AA- |"A" AcBA (3FGF EA- | "A" ABcA "E" F E3 |1 "A" A3 B A3 E- :|2"A" A3 A A4 ||
% abcbook-tune_id 67a7d9ec27c4f8136946794d
% abcbook-tune_composer_id 
% abcbook-link-0 https://www.youtube.com/watch?v=rGUbGOUEgBA
% abcbook-link-title-0 Clifftop 2019 - Halifax - The Ruglifters
% abcbook-boost 0
% abcbook-difficulty 0
% abcbook-tags old time tunes
% abcbook-tablature 
% abcbook-transpose -2
% abcbook-tuning GDGD
% abcbook-lastupdated 1739165048383
% abcbook-src-url 
% abcbook-soundfonts 
% abcbook-repeats 1
%%MIDI transpose -2


